**kern	**silbe	**kern	**silbe	**harmony	**phrase	**leadinstrument	**rhyme	**timestamp	**harte
*ICvox	*	*ICvox	*	*M4/4	*	*	*	*	*M4/4
*VRlead	*	*VRharmonize	*	*	*	*	*	*	*
*Hstimme	*	*Nstimme	*	*	*	*	*	*	*
*E:	*	*E:	*	*E:	*	*	*	*	*E:
*M4/4	*	*M4/4	*	*	*	*	*	*	*
*clefG2	*	*clefG2	*	*	*	*	*	*	*
1r	.	r;	.	1r;	.	r	.	0	N.C.
=1	=1	=1	=1	=1	=1	=1	=1	=1	=1
*>Letter>A	*>Letter>A	*>Letter>A	*>Letter>A	*>Letter>A	*>Letter>A	*>Letter>A	*>Letter>A	*>Letter>A	*>Letter>A
*>Label>Intro	*>Label>Intro	*>Label>Intro	*>Label>Intro	*>Label>Intro	*>Label>Intro	*>Label>Intro	*>Label>Intro	*>Label>Intro	*>Label>Intro
1r	.	1r	.	1N	newline	r	.	0.55	N.C.
=2	=2	=2	=2	=2	=2	=2	=2	=2	=2
1r	.	1r	.	1N	.	r	.	2.439	N.C.
=3	=3	=3	=3	=3	=3	=3	=3	=3	=3
1r	.	1r	.	1EM	.	r	.	4.329	E:maj
=4	=4	=4	=4	=4	=4	=4	=4	=4	=4
1r	.	1r	.	1EM	.	r	.	6.219	E:maj
=5	=5	=5	=5	=5	=5	=5	=5	=5	=5
*>Letter>B	*>Letter>B	*>Letter>B	*>Letter>B	*>Letter>B	*>Letter>B	*>Letter>B	*>Letter>B	*>Letter>B	*>Letter>B
*>Label>Verse	*>Label>Verse	*>Label>Verse	*>Label>Verse	*>Label>Verse	*>Label>Verse	*>Label>Verse	*>Label>Verse	*>Label>Verse	*>Label>Verse
4.r	.	1r	.	1EM	newline	voice	.	8.108	E:maj
8e	The	.	.	.	.	.	.	.	.
4e	night	.	.	.	.	.	.	.	.
4d#	we	.	.	.	.	.	.	.	.
=6	=6	=6	=6	=6	=6	=6	=6	=6	=6
4d#	met	1r	.	1EM	.	voice	.	9.947	E:maj
4c#	I	.	.	.	.	.	.	.	.
4d#	knew	.	.	.	.	.	A	.	.
4e	I	.	.	.	.	.	.	.	.
=7	=7	=7	=7	=7	=7	=7	=7	=7	=7
2r	.	1r	.	1F#m	.	voice	.	11.787	F#:min
8f#	need-	.	.	.	.	.	.	.	.
8f#	-ed	.	.	.	.	.	.	.	.
4e	you	.	.	.	.	.	A	.	.
=8	=8	=8	=8	=8	=8	=8	=8	=8	=8
4d#	so	1r	.	1BM	.	voice	B	13.626	B:maj
4r	.	.	.	.	.	.	.	.	.
2r	.	.	.	.	.	.	.	.	.
=9	=9	=9	=9	=9	=9	=9	=9	=9	=9
4r	.	1r	.	1EM	.	voice	.	15.465	E:maj
8r	.	.	.	.	.	.	.	.	.
8e	And	.	.	.	.	.	.	.	.
8e	if	.	.	.	.	.	.	.	.
4.d#	I	.	.	.	.	.	.	.	.
=10	=10	=10	=10	=10	=10	=10	=10	=10	=10
4d#	had	1r	.	1EM	.	voice	.	17.304	E:maj
8c#	the	.	.	.	.	.	.	.	.
[8d#	chance	.	.	.	.	.	.	.	.
4d#]	_	.	.	.	.	.	.	.	.
4e	I'd	.	.	.	.	.	.	.	.
=11	=11	=11	=11	=11	=11	=11	=11	=11	=11
4r	.	1r	.	1F#m	.	voice	.	19.143	F#:min
8f#	ne-	.	.	.	.	.	.	.	.
8e	-ver	.	.	.	.	.	.	.	.
4f#	let	.	.	.	.	.	.	.	.
4e	you	.	.	.	.	.	A	.	.
=12	=12	=12	=12	=12	=12	=12	=12	=12	=12
4d#	go	1r	.	1BM	.	voice	B	20.982	B:maj
4r	.	.	.	.	.	.	.	.	.
2r	.	.	.	.	.	.	.	.	.
=13	=13	=13	=13	=13	=13	=13	=13	=13	=13
*>Letter>C	*>Letter>C	*>Letter>C	*>Letter>C	*>Letter>C	*>Letter>C	*>Letter>C	*>Letter>C	*>Letter>C	*>Letter>C
*>Label>Bridge	*>Label>Bridge	*>Label>Bridge	*>Label>Bridge	*>Label>Bridge	*>Label>Bridge	*>Label>Bridge	*>Label>Bridge	*>Label>Bridge	*>Label>Bridge
4r	.	1r	.	1G#Mm	newline	voice	.	22.821	G#:7
8r	.	.	.	.	.	.	.	.	.
8g#	So	.	.	.	.	.	B	.	.
4f##	won't	.	.	.	.	.	.	.	.
8g#	you	.	.	.	.	.	.	.	.
[8a	say	.	.	.	.	.	.	.	.
=14	=14	=14	=14	=14	=14	=14	=14	=14	=14
8a]	_	1r	.	1G#Mm	.	voice	.	24.659	G#:7
4g#	you	.	.	.	.	.	.	.	.
[8f##	love	.	.	.	.	.	C	.	.
8f	_	.	.	.	.	.	.	.	.
4.g#	me	.	.	.	.	.	A	.	.
=15	=15	=15	=15	=15	=15	=15	=15	=15	=15
4r	.	1r	.	1C#Mm	.	voice	.	26.497	C#:7
8r	.	.	.	.	.	.	.	.	.
[8g#	I'll	.	.	.	.	.	.	.	.
8g#]	_	.	.	.	.	.	.	.	.
8.f##]	make	.	.	.	.	.	.	.	.
8.g#	you	.	.	.	.	.	.	.	.
=16	=16	=16	=16	=16	=16	=16	=16	=16	=16
4.a	so	1r	.	1C#Mm	.	voice	B	28.335	C#:7
8g#	proud	.	.	.	.	.	.	.	.
8e#	of	.	.	.	.	.	C	.	.
4.c#	me	.	.	.	.	.	A	.	.
=17	=17	=17	=17	=17	=17	=17	=17	=17	=17
4r	.	1r	.	1F#Mm	newline	voice	.	30.173	F#:7
8r	.	.	.	.	.	.	.	.	.
8f#	We'll	.	.	.	.	.	A	.	.
8e#	make	.	.	.	.	.	.	.	.
4f#	'em	.	.	.	.	.	.	.	.
[8g	turn	.	.	.	.	.	.	.	.
=18	=18	=18	=18	=18	=18	=18	=18	=18	=18
8g]	_	1r	.	1F#Mm	.	voice	.	32.003	F#:7
4f#	their	.	.	.	.	.	.	.	.
[8e	heads	.	.	.	.	.	.	.	.
8e]	_	.	.	.	.	.	.	.	.
8r	.	.	.	.	.	.	.	.	.
4r	.	.	.	.	.	.	.	.	.
=19	=19	=19	=19	=19	=19	=19	=19	=19	=19
4d#	ev-	1r	.	1BM	.	voice	.	33.832	B:maj
4d#	-ery	.	.	.	.	.	.	.	.
4e	place	.	.	.	.	.	.	.	.
8d#	we	.	.	.	.	.	.	.	.
8f#	go	.	.	.	.	.	B	.	.
=20	=20	=20	=20	=20	=20	=20	=20	=20	=20
4r	.	1r	.	1BM	.	voice	.	35.662	B:maj
4d#	So	.	.	.	.	.	.	.	.
4e	won't	.	.	.	.	.	.	.	.
8f#	you	.	.	.	.	.	.	.	.
[8g#	please	.	.	.	.	.	A	.	.
=21	=21	=21	=21	=21	=21	=21	=21	=21	=21
*>Letter>D	*>Letter>D	*>Letter>D	*>Letter>D	*>Letter>D	*>Letter>D	*>Letter>D	*>Letter>D	*>Letter>D	*>Letter>D
*>Label>Chorus	*>Label>Chorus	*>Label>Chorus	*>Label>Chorus	*>Label>Chorus	*>Label>Chorus	*>Label>Chorus	*>Label>Chorus	*>Label>Chorus	*>Label>Chorus
8g#]	_	4r	.	1EM	newline	voice	.	37.491	E:maj
8r	.	.	.	.	.	.	.	.	.
4r	.	4e	Be	.	.	.	.	.	.
2r	.	2d#	my	.	.	.	.	.	.
=22	=22	=22	=22	=22	=22	=22	=22	=22	=22
4.r	.	8c#	Be	1EM	.	voice	.	39.367	E:maj
.	.	4c#	my	.	.	.	.	.	.
16r	.	[8d#	ba-	.	.	.	.	.	.
[16g#	Be	.	.	.	.	.	A	.	.
16g#]	_	4d#]	_	.	.	.	.	.	.
8.f#	my	.	.	.	.	.	.	.	.
16e	li-	8e	-by	.	.	.	.	.	.
8f#	-ttle	.	.	.	.	.	.	.	.
.	.	8r	.	.	.	.	.	.	.
[16g#	ba-	.	.	.	.	.	.	.	.
=23	=23	=23	=23	=23	=23	=23	=23	=23	=23
8g#]	_	4r	.	1C#m	.	voice	.	41.242	C#:min
[4.e	-by	.	.	.	.	.	a	.	.
.	.	4e	My	.	.	.	.	.	.
4e]	_	4.d#	one	.	.	.	.	.	.
4r	.	.	.	.	.	.	.	.	.
.	.	8d#	and	.	.	.	.	.	.
=24	=24	=24	=24	=24	=24	=24	=24	=24	=24
4.r	.	4c#	on-	1C#m	.	voice	(B	43.118	C#:min
.	.	8c#	-ly	.	.	.	a)	.	.
16r	.	[8d#	ba-	.	.	.	.	.	.
[16g#	Say	.	.	.	.	.	.	.	.
16g#]	_	4d#]	_	.	.	.	.	.	.
8f#	you'll	.	.	.	.	.	.	.	.
8e	be	.	.	.	.	.	A	.	.
.	.	8e	-by	.	.	.	a	.	.
8f#	my	.	.	.	.	.	.	.	.
.	.	8r	.	.	.	.	.	.	.
16f#	dar-	.	.	.	.	.	.	.	.
=25	=25	=25	=25	=25	=25	=25	=25	=25	=25
16g#	_	4r	.	1AM	newline	voice	.	44.993	A:maj
16f#	_	.	.	.	.	.	.	.	.
16e	_	.	.	.	.	.	.	.	.
8.f#	_	.	.	.	.	.	.	.	.
.	.	4e	Be	.	.	.	.	.	.
[8d#	-ling	.	.	.	.	.	a	.	.
4d#]	_	2d#	my	.	.	.	.	.	.
4r	.	.	.	.	.	.	.	.	.
=26	=26	=26	=26	=26	=26	=26	=26	=26	=26
4.r	.	8c#	Be	1AM	.	voice	.	46.847	A:maj
.	.	4c#	my	.	.	.	.	.	.
8a	Be	[8d#	ba-	.	.	.	A	.	.
6a	my	4d#]	_	.	.	.	.	.	.
6g#	ba-	.	.	.	.	.	.	.	.
.	.	8e	-by	.	.	.	.	.	.
6f#	-by	.	.	.	.	.	A	.	.
.	.	8r	.	.	.	.	.	.	.
=27	=27	=27	=27	=27	=27	=27	=27	=27	=27
4.a	now	4r	.	1BMm	.	voice	.	48.701	B:7
.	.	4e	My	.	.	.	.	.	.
16g#	_	.	.	.	.	.	.	.	.
16a	_	.	.	.	.	.	.	.	.
4f#	_	4.d#	one	.	.	.	.	.	.
8r	.	.	.	.	.	.	.	.	.
8a	Ooh	8d#	and	.	.	.	.	.	.
=28	=28	=28	=28	=28	=28	=28	=28	=28	=28
4b	Woh	4c#	on-	1BMm	.	voice	B	50.554	B:7
4a	oh	8c#	-ly	.	.	.	B	.	.
.	.	8f#	ba-	.	.	.	.	.	.
4g#	oh	4g#	_	.	.	.	B	.	.
4f#	oh	8f#	-by	.	.	.	B	.	.
.	.	8r	.	.	.	.	.	.	.
=29	=29	=29	=29	=29	=29	=29	=29	=29	=29
*>Letter>B	*>Letter>B	*>Letter>B	*>Letter>B	*>Letter>B	*>Letter>B	*>Letter>B	*>Letter>B	*>Letter>B	*>Letter>B
*>Label>Verse	*>Label>Verse	*>Label>Verse	*>Label>Verse	*>Label>Verse	*>Label>Verse	*>Label>Verse	*>Label>Verse	*>Label>Verse	*>Label>Verse
2r	.	1r	.	1EM	newline	.	.	52.408	E:maj
8r	.	.	.	.	.	.	.	.	.
8e	I'll	.	.	.	.	.	.	.	.
8e	make	.	.	.	.	.	.	.	.
8d#	you	.	.	.	.	.	.	.	.
=30	=30	=30	=30	=30	=30	=30	=30	=30	=30
8.d#	ha-	1r	.	1EM	.	.	.	54.281	E:maj
8.c#	-ppy	.	.	.	.	.	a	.	.
8.d#	ba-	.	.	.	.	.	.	.	.
[8.e	-by	.	.	.	.	.	a	.	.
8e]	_	.	.	.	.	.	.	.	.
8r	.	.	.	.	.	.	.	.	.
=31	=31	=31	=31	=31	=31	=31	=31	=31	=31
4.r	.	1r	.	1F#m	.	.	.	56.155	F#:min
[8f#	Just	.	.	.	.	.	.	.	.
8f#]	_	.	.	.	.	.	.	.	.
8f#	wait	.	.	.	.	.	.	.	.
4e	and	.	.	.	.	.	.	.	.
=32	=32	=32	=32	=32	=32	=32	=32	=32	=32
4d#	see	1r	.	1BM	.	.	A	58.029	B:maj
4r	.	.	.	.	.	.	.	.	.
2r	.	.	.	.	.	.	.	.	.
=33	=33	=33	=33	=33	=33	=33	=33	=33	=33
4r	.	1r	.	1EM	.	.	.	59.903	E:maj
8r	.	.	.	.	.	.	.	.	.
8e	For	.	.	.	.	.	.	.	.
4e	ev-	.	.	.	.	.	.	.	.
4d#	-ery	.	.	.	.	.	.	.	.
=34	=34	=34	=34	=34	=34	=34	=34	=34	=34
4d#	kiss	1r	.	1EM	.	.	.	61.776	E:maj
8r	.	.	.	.	.	.	.	.	.
8c#	you	.	.	.	.	.	.	.	.
8d#	give	.	.	.	.	.	.	.	.
4.e	me	.	.	.	.	.	A	.	.
=35	=35	=35	=35	=35	=35	=35	=35	=35	=35
4.r	.	1r	.	1F#m	.	.	.	63.65	F#:min
[8f#	I'll	.	.	.	.	.	.	.	.
8f#]	_	.	.	.	.	.	.	.	.
8f#	give	.	.	.	.	.	.	.	.
4e	you	.	.	.	.	.	.	.	.
=36	=36	=36	=36	=36	=36	=36	=36	=36	=36
4d#	three	1r	.	1BM	.	.	A	65.524	B:maj
4r	.	.	.	.	.	.	.	.	.
2r	.	.	.	.	.	.	.	.	.
=37	=37	=37	=37	=37	=37	=37	=37	=37	=37
*>Letter>C	*>Letter>C	*>Letter>C	*>Letter>C	*>Letter>C	*>Letter>C	*>Letter>C	*>Letter>C	*>Letter>C	*>Letter>C
*>Label>Bridge	*>Label>Bridge	*>Label>Bridge	*>Label>Bridge	*>Label>Bridge	*>Label>Bridge	*>Label>Bridge	*>Label>Bridge	*>Label>Bridge	*>Label>Bridge
4.r	.	1r	.	1G#Mm	newline	.	.	67.397	G#:7
[8g#	Oh	.	.	.	.	.	.	.	.
8g#]	_	.	.	.	.	.	.	.	.
8f##	since	.	.	.	.	.	.	.	.
8g#	the	.	.	.	.	.	.	.	.
[8a	day	.	.	.	.	.	.	.	.
=38	=38	=38	=38	=38	=38	=38	=38	=38	=38
8a]	_	1r	.	1G#Mm	.	.	.	69.269	G#:7
4g#	I	.	.	.	.	.	.	.	.
[8f##	saw	.	.	.	.	.	.	.	.
8f	_	.	.	.	.	.	.	.	.
4.g#	you	.	.	.	.	.	.	.	.
=39	=39	=39	=39	=39	=39	=39	=39	=39	=39
4.r	.	1r	.	1C#Mm	.	.	.	71.14	C#:7
8.g#	I	.	.	.	.	.	.	.	.
8.f##]	have	.	.	.	.	.	.	.	.
8.g#	been	.	.	.	.	.	.	.	.
[16a	wai-	.	.	.	.	.	.	.	.
=40	=40	=40	=40	=40	=40	=40	=40	=40	=40
8a]	_	1r	.	1C#Mm	.	.	.	73.011	C#:7
4g#	-ting	.	.	.	.	.	.	.	.
[8e#	for	.	.	.	.	.	D	.	.
8e#]	_	.	.	.	.	.	.	.	.
4.c#	you	.	.	.	.	.	.	.	.
=41	=41	=41	=41	=41	=41	=41	=41	=41	=41
4r	.	1r	.	1F#Mm	newline	.	.	74.882	F#:7
8r	.	.	.	.	.	.	.	.	.
8f#	You	.	.	.	.	.	.	.	.
8e#	know	.	.	.	.	.	.	.	.
4f#	I	.	.	.	.	.	.	.	.
[8g	will	.	.	.	.	.	.	.	.
=42	=42	=42	=42	=42	=42	=42	=42	=42	=42
8g]	_	1r	.	1F#Mm	.	.	.	76.718	F#:7
4f#	a-	.	.	.	.	.	.	.	.
8e	-dore	.	.	.	.	.	D	.	.
8c#	_	.	.	.	.	.	.	.	.
8c#	you	.	.	.	.	.	.	.	.
4r	.	.	.	.	.	.	.	.	.
=43	=43	=43	=43	=43	=43	=43	=43	=43	=43
4d#	till	1r	.	1BM	.	.	.	78.555	B:maj
4d#	e-	.	.	.	.	.	a	.	.
8e	-tern-	.	.	.	.	.	.	.	.
4e#	-i-	.	.	.	.	.	.	.	.
[8f#	-ty	.	.	.	.	.	A	.	.
=44	=44	=44	=44	=44	=44	=44	=44	=44	=44
8f#]	_	1r	.	1BM	.	.	.	80.391	B:maj
8r	.	.	.	.	.	.	.	.	.
4g#	So	.	.	.	.	.	B	.	.
4b	won't	.	.	.	.	.	.	.	.
4g#	you	.	.	.	.	.	.	.	.
=45	=45	=45	=45	=45	=45	=45	=45	=45	=45
*>Letter>D	*>Letter>D	*>Letter>D	*>Letter>D	*>Letter>D	*>Letter>D	*>Letter>D	*>Letter>D	*>Letter>D	*>Letter>D
*>Label>Chorus	*>Label>Chorus	*>Label>Chorus	*>Label>Chorus	*>Label>Chorus	*>Label>Chorus	*>Label>Chorus	*>Label>Chorus	*>Label>Chorus	*>Label>Chorus
8f#	please	4r	.	1EM	newline	.	A	82.228	E:maj
4.e	_	.	.	.	.	.	.	.	.
.	.	4e	Be	.	.	.	.	.	.
2r	.	2d#	my	.	.	.	.	.	.
=46	=46	=46	=46	=46	=46	=46	=46	=46	=46
4.r	.	8c#	Be	1EM	.	.	.	84.133	E:maj
.	.	4c#	my	.	.	.	.	.	.
16r	.	[8d#	ba-	.	.	.	.	.	.
[16g#	Be	.	.	.	.	.	.	.	.
16g#]	_	4d#]	_	.	.	.	.	.	.
8.f#	my	.	.	.	.	.	.	.	.
16e	li-	8e	-by	.	.	.	.	.	.
8f#	-ttle	.	.	.	.	.	.	.	.
.	.	8r	.	.	.	.	.	.	.
[16g#	ba-	.	.	.	.	.	.	.	.
=47	=47	=47	=47	=47	=47	=47	=47	=47	=47
8g#]	_	4r	.	1C#m	.	.	.	86.038	C#:min
[4.e	-by	.	.	.	.	.	a	.	.
.	.	4e	My	.	.	.	.	.	.
4.e]	_	4.d#	one	.	.	.	.	.	.
8r	.	8d#	and	.	.	.	.	.	.
=48	=48	=48	=48	=48	=48	=48	=48	=48	=48
4.r	.	4c#	on-	1C#m	.	.	.	87.943	C#:min
.	.	8c#	-ly	.	.	.	.	.	.
16r	.	[8d#	ba-	.	.	.	.	.	.
[16g#	Say	.	.	.	.	.	.	.	.
16g#]	_	4d#]	_	.	.	.	.	.	.
8f#	you'll	.	.	.	.	.	.	.	.
8e	be	.	.	.	.	.	A	.	.
.	.	8e	-by	.	.	.	.	.	.
8f#	my	.	.	.	.	.	.	.	.
.	.	8r	.	.	.	.	.	.	.
16f#	dar-	.	.	.	.	.	.	.	.
=49	=49	=49	=49	=49	=49	=49	=49	=49	=49
16g#	_	4r	.	1AM	newline	voice	.	89.848	A:maj
16f#	_	.	.	.	.	.	.	.	.
16e	_	.	.	.	.	.	.	.	.
8f#	_	.	.	.	.	.	.	.	.
.	.	4e	Be	.	.	.	.	.	.
16e	_	.	.	.	.	.	.	.	.
[8d#	-ling	.	.	.	.	.	a	.	.
4d#]	_	2d#	my	.	.	.	.	.	.
4r	.	.	.	.	.	.	.	.	.
=50	=50	=50	=50	=50	=50	=50	=50	=50	=50
4.r	.	8c#	Be	1AM	.	voice	.	91.723	A:maj
.	.	4c#	my	.	.	.	.	.	.
8a	Be	[8d#	ba-	.	.	.	A	.	.
6a	my	4d#]	_	.	.	.	.	.	.
6g#	ba-	.	.	.	.	.	.	.	.
.	.	8e	-by	.	.	.	.	.	.
6f#	-by	.	.	.	.	.	a	.	.
.	.	8r	.	.	.	.	.	.	.
=51	=51	=51	=51	=51	=51	=51	=51	=51	=51
4.a	now	4r	.	1BMm	.	voice	.	93.598	B:7
.	.	4e	My	.	.	.	.	.	.
16g#	_	.	.	.	.	.	.	.	.
16a	_	.	.	.	.	.	.	.	.
4f#	_	4.d#	one	.	.	.	.	.	.
8r	.	.	.	.	.	.	.	.	.
8a	Ooh	8d#	and	.	.	.	B	.	.
=52	=52	=52	=52	=52	=52	=52	=52	=52	=52
4b	Woh	4c#	on-	1BMm	.	voice	B	95.473	B:7
4a	oh	8c#	-ly	.	.	.	B	.	.
.	.	8f#	ba-	.	.	.	.	.	.
4g#	oh	4g#	_	.	.	.	B	.	.
16g#	oh	8f#	-by	.	.	.	B	.	.
8.f#	_	.	.	.	.	.	.	.	.
.	.	8r	.	.	.	.	.	.	.
=53	=53	=53	=53	=53	=53	=53	=53	=53	=53
*>Letter>B	*>Letter>B	*>Letter>B	*>Letter>B	*>Letter>B	*>Letter>B	*>Letter>B	*>Letter>B	*>Letter>B	*>Letter>B
*>Label>Solo	*>Label>Solo	*>Label>Solo	*>Label>Solo	*>Label>Solo	*>Label>Solo	*>Label>Solo	*>Label>Solo	*>Label>Solo	*>Label>Solo
2e	oh	1r	.	1EM	newline	strings	B	97.348	E:maj
2r	.	.	.	.	.	.	.	.	.
=54	=54	=54	=54	=54	=54	=54	=54	=54	=54
1r	.	1r	.	1EM	.	strings	.	99.228	E:maj
=55	=55	=55	=55	=55	=55	=55	=55	=55	=55
1r	.	1r	.	1F#m	.	strings	.	101.108	F#:min
=56	=56	=56	=56	=56	=56	=56	=56	=56	=56
1r	.	1r	.	1BM	.	strings	.	102.988	B:maj
=57	=57	=57	=57	=57	=57	=57	=57	=57	=57
1r	.	1r	.	1EM	.	strings	.	104.868	E:maj
=58	=58	=58	=58	=58	=58	=58	=58	=58	=58
1r	.	1r	.	1EM	.	strings	.	106.748	E:maj
=59	=59	=59	=59	=59	=59	=59	=59	=59	=59
1r	.	1r	.	1F#m	.	strings	.	108.628	F#:min
=60	=60	=60	=60	=60	=60	=60	=60	=60	=60
4.r	.	1r	.	1BM	.	strings	.	110.508	B:maj
8g#	So	.	.	.	.	.	.	.	.
8b	come	.	.	.	.	.	.	.	.
4g#	on	.	.	.	.	.	.	.	.
8g#	and	.	.	.	.	.	.	.	.
=61	=61	=61	=61	=61	=61	=61	=61	=61	=61
*>Letter>D	*>Letter>D	*>Letter>D	*>Letter>D	*>Letter>D	*>Letter>D	*>Letter>D	*>Letter>D	*>Letter>D	*>Letter>D
*>Label>Chorus	*>Label>Chorus	*>Label>Chorus	*>Label>Chorus	*>Label>Chorus	*>Label>Chorus	*>Label>Chorus	*>Label>Chorus	*>Label>Chorus	*>Label>Chorus
8f#	please	4r	.	1EM	newline	voice	A	112.388	E:maj
8e	_	.	.	.	.	.	.	.	.
8f#	_	4e	Be	.	.	.	.	.	.
8e	_	.	.	.	.	.	.	.	.
2r	.	2d#	my	.	.	.	.	.	.
=62	=62	=62	=62	=62	=62	=62	=62	=62	=62
4.r	.	8c#	Be	1EM	.	voice	.	114.291	E:maj
.	.	4c#	my	.	.	.	.	.	.
16r	.	[8d#	ba-	.	.	.	.	.	.
[16g#	Be	.	.	.	.	.	.	.	.
16g#]	_	4d#]	_	.	.	.	.	.	.
8.f#	my	.	.	.	.	.	.	.	.
16e	li-	8e	-by	.	.	.	.	.	.
8f#	-ttle	.	.	.	.	.	.	.	.
.	.	8r	.	.	.	.	.	.	.
[16g#	ba-	.	.	.	.	.	.	.	.
=63	=63	=63	=63	=63	=63	=63	=63	=63	=63
8g#]	_	4r	.	1C#m	.	voice	.	116.193	C#:min
[4.e	-by	.	.	.	.	.	.	.	.
.	.	4e	My	.	.	.	.	.	.
2e]	_	4.d#	one	.	.	.	.	.	.
.	.	8d#	and	.	.	.	.	.	.
=64	=64	=64	=64	=64	=64	=64	=64	=64	=64
4.r	.	4c#	on-	1C#m	.	voice	.	118.095	C#:min
.	.	8c#	-ly	.	.	.	.	.	.
16r	.	[8d#	ba-	.	.	.	.	.	.
[16g#	Say	.	.	.	.	.	.	.	.
16g#]	_	4d#]	_	.	.	.	.	.	.
8f#	you'll	.	.	.	.	.	.	.	.
8e	be	.	.	.	.	.	A	.	.
.	.	8e	-by	.	.	.	.	.	.
8f#	my	.	.	.	.	.	.	.	.
.	.	8r	.	.	.	.	.	.	.
16f#	dar-	.	.	.	.	.	.	.	.
=65	=65	=65	=65	=65	=65	=65	=65	=65	=65
16g#	_	4r	.	1AM	newline	voice	.	119.997	A:maj
16f#	_	.	.	.	.	.	.	.	.
16e	_	.	.	.	.	.	.	.	.
8f#	_	.	.	.	.	.	.	.	.
.	.	4e	Be	.	.	.	.	.	.
16e	_	.	.	.	.	.	.	.	.
[8d#	-ling	.	.	.	.	.	a	.	.
2d#]	_	2d#	my	.	.	.	.	.	.
=66	=66	=66	=66	=66	=66	=66	=66	=66	=66
4.r	.	8c#	Be	1AM	.	voice	.	121.86	A:maj
.	.	4c#	my	.	.	.	.	.	.
8a	Be	[8d#	ba-	.	.	.	A	.	.
6a	my	4d#]	_	.	.	.	.	.	.
6g#	ba-	.	.	.	.	.	.	.	.
.	.	8e	-by	.	.	.	.	.	.
6f#	-by	.	.	.	.	.	a	.	.
.	.	8r	.	.	.	.	.	.	.
=67	=67	=67	=67	=67	=67	=67	=67	=67	=67
4.a	now	4r	.	1BMm	.	voice	.	123.724	B:7
.	.	4e	My	.	.	.	.	.	.
16g#	_	.	.	.	.	.	.	.	.
16a	_	.	.	.	.	.	.	.	.
4f#	_	4.d#	one	.	.	.	.	.	.
4r	.	.	.	.	.	.	.	.	.
.	.	8d#	and	.	.	.	.	.	.
=68	=68	=68	=68	=68	=68	=68	=68	=68	=68
4b	Woh	4c#	on-	1BMm	.	voice	B	125.587	B:7
4a	oh	8c#	-ly	.	.	.	B	.	.
.	.	8f#	ba-	.	.	.	.	.	.
4g#	oh	4g#	_	.	.	.	B	.	.
4f#	oh	8f#	-by	.	.	.	B	.	.
.	.	8r	.	.	.	.	.	.	.
=69	=69	=69	=69	=69	=69	=69	=69	=69	=69
1r	.	1r	.	1N	newline	voice	.	127.45	N.C.
=70	=70	=70	=70	=70	=70	=70	=70	=70	=70
1r	.	1r	.	1N	.	voice	.	129.336	N.C.
=71	=71	=71	=71	=71	=71	=71	=71	=71	=71
*>Letter>D	*>Letter>D	*>Letter>D	*>Letter>D	*>Letter>D	*>Letter>D	*>Letter>D	*>Letter>D	*>Letter>D	*>Letter>D
*>Label>Chorus	*>Label>Chorus	*>Label>Chorus	*>Label>Chorus	*>Label>Chorus	*>Label>Chorus	*>Label>Chorus	*>Label>Chorus	*>Label>Chorus	*>Label>Chorus
1r	.	4r	.	1EM	newline	voice	.	131.221	E:maj
.	.	4e	Be	.	.	.	.	.	.
.	.	2d#	my	.	.	.	.	.	.
=72	=72	=72	=72	=72	=72	=72	=72	=72	=72
4.r	.	8c#	Be	1EM	.	voice	.	133.059	E:maj
.	.	4c#	my	.	.	.	.	.	.
16r	.	[8d#	ba-	.	.	.	.	.	.
[16g#	Be	.	.	.	.	.	.	.	.
16g#]	_	4d#]	_	.	.	.	.	.	.
8.f#	my	.	.	.	.	.	.	.	.
16e	li-	8e	-by	.	.	.	.	.	.
8f#	-ttle	.	.	.	.	.	.	.	.
.	.	8r	.	.	.	.	.	.	.
[16g#	ba-	.	.	.	.	.	.	.	.
=73	=73	=73	=73	=73	=73	=73	=73	=73	=73
8g#]	_	4r	.	1C#m	.	voice	.	134.898	C#:min
[4.e	-by	.	.	.	.	.	.	.	.
.	.	4e	My	.	.	.	.	.	.
2e]	_	4.d#	one	.	.	.	.	.	.
.	.	8d#	and	.	.	.	.	.	.
=74	=74	=74	=74	=74	=74	=74	=74	=74	=74
4.r	.	4c#	on-	1C#m	.	voice	.	136.736	C#:min
.	.	8c#	-ly	.	.	.	.	.	.
16f#	Oh	[8d#	ba-	.	.	.	.	.	.
16g#	_	.	.	.	.	.	.	.	.
16f#	_	4d#]	_	.	.	.	.	.	.
8e	_	.	.	.	.	.	.	.	.
[16f#	_	.	.	.	.	.	.	.	.
8f#]	_	8e	-by	.	.	.	.	.	.
16g#	_	8r	.	.	.	.	.	.	.
16f#	_	.	.	.	.	.	.	.	.
=75	=75	=75	=75	=75	=75	=75	=75	=75	=75
8e	_	4r	.	1AM	newline	voice	.	138.574	A:maj
8f#	_	.	.	.	.	.	.	.	.
2.e	_	4e	Be	.	.	.	.	.	.
.	.	2d#	my	.	.	.	.	.	.
=76	=76	=76	=76	=76	=76	=76	=76	=76	=76
4.r	.	8c#	Be	1AM	.	voice	.	140.427	A:maj
.	.	4c#	my	.	.	.	.	.	.
16g#	Oh	[8d#	ba-	.	.	.	.	.	.
16a	_	.	.	.	.	.	.	.	.
8g#	_	4d#]	_	.	.	.	.	.	.
4f#	_	.	.	.	.	.	.	.	.
.	.	8e	-by	.	.	.	.	.	.
8a	_	8r	.	.	.	.	.	.	.
=77	=77	=77	=77	=77	=77	=77	=77	=77	=77
8a	_	4r	.	1BMm	.	voice	.	142.281	B:7
8a	_	.	.	.	.	.	.	.	.
8a	_	4e	My	.	.	.	.	.	.
8a	_	.	.	.	.	.	.	.	.
8a	_	4.d#	one	.	.	.	.	.	.
8r	.	.	.	.	.	.	.	.	.
8r	.	.	.	.	.	.	.	.	.
8a	Ooh	8d#	and	.	.	.	B	.	.
=78	=78	=78	=78	=78	=78	=78	=78	=78	=78
4b	Woh	4c#	on-	1BMm	.	voice	B	144.134	B:7
4a	oh	8c#	-ly	.	.	.	B	.	.
.	.	8f#	ba-	.	.	.	.	.	.
4g#	oh	4g#	_	.	.	.	B	.	.
4f#	oh	8f#	-by	.	.	.	B	.	.
.	.	8r	.	.	.	.	.	.	.
=79	=79	=79	=79	=79	=79	=79	=79	=79	=79
*>Letter>D	*>Letter>D	*>Letter>D	*>Letter>D	*>Letter>D	*>Letter>D	*>Letter>D	*>Letter>D	*>Letter>D	*>Letter>D
*>Label>Chorus	*>Label>Chorus	*>Label>Chorus	*>Label>Chorus	*>Label>Chorus	*>Label>Chorus	*>Label>Chorus	*>Label>Chorus	*>Label>Chorus	*>Label>Chorus
[1e	oh	4r	.	1EM	newline	fadeout	.	145.987	E:maj
.	.	4e	Be	.	.	.	.	.	.
.	.	2d#	my	.	.	.	.	.	.
=80	=80	=80	=80	=80	=80	=80	=80	=80	=80
4e]	_	8c#	Be	1EM	.	fadeout	.	147.822	E:maj
.	.	4c#	my	.	.	.	.	.	.
8r	.	.	.	.	.	.	.	.	.
16g#	Oh	[8d#	ba-	.	.	.	B	.	.
16f#	_	.	.	.	.	.	.	.	.
8e	_	4d#]	_	.	.	.	.	.	.
8e	oh	.	.	.	.	.	B	.	.
8f#	_	8e	-by	.	.	.	.	.	.
[8e	_	8r	.	.	.	.	.	.	.
=81	=81	=81	=81	=81	=81	=81	=81	=81	=81
1e]	_	4r	.	1C#m	.	fadeout	.	149.656	C#:min
.	.	4e	My	.	.	.	.	.	.
.	.	4.d#	one	.	.	.	.	.	.
.	.	8d#	and	.	.	.	.	.	.
=82	=82	=82	=82	=82	=82	=82	=82	=82	=82
4.r	.	4c#	on-	1C#m	.	fadeout	.	151.49	C#:min
.	.	8c#	-ly	.	.	.	.	.	.
[8g#	Oh	[8d#	ba-	.	.	.	B	.	.
16g#]	_	4d#]	_	.	.	.	.	.	.
8f#	_	.	.	.	.	.	.	.	.
[16e	_	.	.	.	.	.	.	.	.
16e]	_	8e	-by	.	.	.	.	.	.
8.f#	_	.	.	.	.	.	.	.	.
.	.	8r	.	.	.	.	.	.	.
=83	=83	=83	=83	=83	=83	=83	=83	=83	=83
16g#	_	4r	.	1AM	newline	voice	.	153.324	A:maj
16f#	_	.	.	.	.	.	.	.	.
8e	_	.	.	.	.	.	.	.	.
8f#	Oh	4e	Be	.	.	.	B	.	.
[8e	_	.	.	.	.	.	.	.	.
2e]	_	2d#	my	.	.	.	.	.	.
=84	=84	=84	=84	=84	=84	=84	=84	=84	=84
4.r	.	8c#	Be	1AM	.	voice	.	154.647	A:maj
.	.	4c#	my	.	.	.	.	.	.
8a	Be	[8d#	ba-	.	.	.	A	.	.
6a	my	4d#]	_	.	.	.	.	.	.
6g#	ba-	.	.	.	.	.	.	.	.
.	.	8e	-by	.	.	.	.	.	.
6f#	-by	.	.	.	.	.	A	.	.
.	.	8r	.	.	.	.	.	.	.
=85	=85	=85	=85	=85	=85	=85	=85	=85	=85
4.a	now	4r	.	1BMm	.	voice	.	155.971	B:7
.	.	4e	My	.	.	.	.	.	.
16g#	_	.	.	.	.	.	.	.	.
16a	_	.	.	.	.	.	.	.	.
4f#	_	4.d#	one	.	.	.	.	.	.
4r	.	.	.	.	.	.	.	.	.
.	.	8d#	and	.	.	.	.	.	.
=86	=86	=86	=86	=86	=86	=86	=86	=86	=86
1r	.	4c#	on-	1BMm	.	voice	.	157.294	B:7
.	.	8c#	-ly	.	.	.	.	.	.
.	.	8f#	ba-	.	.	.	.	.	.
.	.	4g#	_	.	.	.	.	.	.
.	.	8f#	-by	.	.	.	.	.	.
.	.	8r	.	.	.	.	.	.	.
r;	.	r;	.	1r;	.	r	.	158.618	N.C.
r;	.	r;	.	1r;	.	r	.	159.007	N.C.
*-	*-	*-	*-	*-	*-	*-	*-	*-	*-
!!!BillboardChartDate: 1963/09/28, 1963/09/28
!!!BillboardPeak: 2, 2
!!!BillboardWeeksOnChart: 13, 13
!!!COC: The Ronettes
!!!ENC: Nathaniel Condit-Schultz
!!!EST: Awating manual error checking and editing.
!!!OTL: Be My Baby
!!!RDF**chordsym: original McGill chord annotation + (implied pitch class set, with bass pitch in first position)
!!!RDF**harmony: **recip + pitch class of root + harmonic quality
!!!RDF**leadinstrument: original McGill primary instrumentation annotation
!!!RDF**phrase: newline = linebreak in original McGill transcription
!!!RDF**timestamp: McGill audio timestamp in seconds
!!!RDT: 2017/01/12/
!!!SampleActualRank: 3, 3
!!!SampleID#: 120, 903
!!!SampleTargetRank: 1, 3
